X:28
T:La Garcon Volage.(sic) RHu.028
T:Le Garcon Volage. RHu.028
T:Dingles Regatta,aka. RHu.028
S:R.Hughes MS,1823,Whitchurch,Shrops.
A:Whitchurch, Shropshire
Z:Neil Brookes 2006
M:6/8
L:1/8
Q:3/8=120
R:Jig
K:G
Bc|d2de2d|B2Bd2c|A2A AGA|B2G2 Bc|!
d2de2d|B2Bd2c|A2A AGA|G4::!
g|fef def|g2ed2B|c2dB2c|A2AA2g|!
f2f def|g2ed2B|^c2c ABc|d2f/e”D.C.”/d2:|

